X: 31
T:My Home
% Nottingham Music Database
S:FTB1/28
M:3/4
L:1/4
K:A
e/2d/2|"A"c3/2B/2A|"A"Ace|"D/f+"a"e"g"d"f|"A/c+"e2"b"e/2d/2|"A"c3/2B/2"g#"c|\
"F#m"AB"e"c|"Bm/d"d3/2c/2d|
"E7"B"f#"e"g#"d|"A"c3/2B/2A|"A"Ace|"D/f+"a"e"g"d"f|"A/c+"e2"b"d|"A"c3/2A/2c|\
"G"B3/2=G/2B|"A"A3/2B/2A|"A"A2"E7"E|
"A"A3/2B/2c|"A"cBc|"A"e3/2d/2c|"F#m"c2e|"Bm"d3/2c/2d|"E7"Bcd|"A"e3/2c/2A|\
"A7"Ac/2e/2c/2e/2|
"D"f3/2d/2f|"D/f+"a"e"g"d"f|"A/c+"e3/2d/2c|"A"a2"E7"d|"A"c3/2A/2c|"G"B3/2=G/2B\
|"A"A3/2B/2A|"A"A2||<end>
<start>
